!!!!SEGMENT: pl-kk--kk-i-1--005-004_anonim--missa-gaude-virgo-sanctus.krn
!!!cenid: 15xx:676
!!!COM: Anonim
!!!COM-rismID: pe30004985
!!!CDT:
!!!CNT:
!!!OPR: [Missa] Gaude virgo
!!!OTL: Sanctus
!!!OMV: 004
!!!PDT:
!!!AGN:
!!!SMS-siglum: PL-Kk
!!!SMS-shelfmark: Kk.I.1
!!!SMS-shelfwork: 005-004 M
!!!SMS-variant:
!!!SMS-altvar:
!!!NIFC-rismSourceID: 300257954
!!!NIFC-rismChildID: 300257959
!!!NIFC-islandoraID: pl-kk:1
!!!URL-pdf-islandora: https://repozytorium.nifc.pl/islandora/object/pl-kk%3A1/datastream/PDF/view
!!!URL-scan: https://polish.musicsources.pl/pl/lokalizacje/galeria/rekopisy/5736 @EN{Scan on Polish Music Sources Website} @PL{Skany w portalu Dziedzictwo Muzyki Polskiej w otwartym dostępie}
!!!IIIF: https://repozytorium.nifc.pl/islandora/object/pl-kk%3A1/datastream/IIIF/view
!!!ONB-nifc: UWAGA: Cantus (s. 30v-41r, skan 0033-0043), Altus (s. 31v-42v, skan 0224-0235), Tenor (s. 31r-42r, skan 0419-0430), Bassus (s. 30v-40r, skan 0592-0601). Części Mszy: 1. Kyrie, 2. Et in terra, 3. Patrem, 4. Sanctus, 5. Agnus Dei
!!!AIN: 1 alto 1 bass 1 soprn 1 tenor
!!!key: G:mix
**kern	**text	**text	**kern	**text	**text	**kern	**text	**text	**kern	**text
*group1	*	*	*group1	*	*	*group1	*	*	*group1	*
*part4	*part4	*part4	*part3	*part3	*part3	*part2	*part2	*part2	*part1	*part1
*staff4	*staff4	*staff4	*staff3	*staff3	*staff3	*staff2	*staff2	*staff2	*staff1	*staff1
*I"BASSVS	*	*	*I"TENOR	*	*	*I"ALTVS	*	*	*I"CANTVS	*
*I'[B]	*	*	*I'[T]	*	*	*I'[A]	*	*	*I'[S]	*
*Ibass	*	*	*Itenor	*	*	*Ialto	*	*	*Isoprn	*
*ICvox	*	*	*ICvox	*	*	*ICvox	*	*	*ICvox	*
*clefC4	*	*	*clefC2	*	*	*clefC2	*	*	*clefC2	*
*k[b-]	*	*	*k[b-]	*	*	*k[b-]	*	*	*k[b-]	*
*G:mix	*	*	*G:mix	*	*	*G:mix	*	*	*G:mix	*
*M2/1	*	*	*M2/1	*	*	*M2/1	*	*	*M2/1	*
*met(C|)	*	*	*met(C|)	*	*	*met(C|)	*	*	*met(C|)	*
=1-	=1-	=1-	=1-	=1-	=1-	=1-	=1-	=1-	=1-	=1-
*xywh-#598:5713,2146,4264,834	*	*	*xywh-#427:5709,1979,4290,964	*	*	*xywh-#232:1306,512,4207,977	*	*	*xywh-#41:1095,624,4241,957	*
!LO:TX:t=P:problem=all\middle&colon; global	!	!	!LO:TX:t=P:problem=all\middle&colon; global	!	!	!LO:TX:t=P:problem=all\middle&colon; global	!	!	!LO:TX:t=P:problem=all\middle&colon; global	!
00r	.	.	0r	.	.	0B-	San-	.	00r	.
=2-	=2-	=2-	=2-	=2-	=2-	=2-	=2-	=2-	=2-	=2-
!LO:TX:b:t=12	!	!	!LO:TX:t=P:problem=kreska pseudotaktowa	!	!	!LO:TX:t=P:problem=kreska pseudotaktowa	!	!	!LO:TX:a:t=14	!
.	.	.	0B-	San-	.	1G	.	.	.	.
.	.	.	.	.	.	0d	-ctus,	.	.	.
=3-	=3-	=3-	=3	=3	=3	=3-	=3-	=3-	=3	=3
!	!	!	!LO:TX:t=P:problem=kreska pseudotaktowa	!	!	!	!	!	!	!
00r	.	.	1G	.	.	.	.	.	00r	.
.	.	.	0d	-ctus,	.	0B-	san-	.	.	.
=4-	=4-	=4-	=4-	=4-	=4-	=4-	=4-	=4-	=4-	=4-
.	.	.	.	.	.	.	.	.	.	.
!	!	!	!LO:TX:t=P:problem=kreska pseudotaktowa	!	!	!	!	!	!	!
.	.	.	1B-	.	.	2.f\	.	.	.	.
!	!	!	!	!	!	!LO:TX:t=P:problem=kreska pseudotaktowa	!	!	!	!
.	.	.	.	.	.	4e/	-ctus,	.	.	.
=5-	=5-	=5-	=5	=5	=5	=5	=5	=5	=5-	=5-
*	*	*	*	*ij	*	*	*	*	*	*
00r	.	.	1.f	San-	.	4d/	.	.	00r	.
.	.	.	.	.	.	4c/	.	.	.	.
.	.	.	.	.	.	1d	.	.	.	.
.	.	.	4e/	-ctus	.	4c/	.	.	.	.
!	!	!	!LO:TX:t=P:problem=kreska pseudotaktowa	!	!	!LO:TX:t=P:problem=kreska pseudotaktowa	!	!	!	!
.	.	.	4d/	.	.	4B-/	.	.	.	.
=6-	=6-	=6-	=6	=6	=6-	=6	=6	=6	=6-	=6-
.	.	.	2e/	San-	.	2A/	.	.	.	.
.	.	.	2d/	.	.	1d	.	.	.	.
.	.	.	1e	.	.	.	.	.	.	.
!	!	!	!	!	!	!LO:TX:t=P:problem=kreska pseudotaktowa	!	!	!	!
.	.	.	.	.	.	2c/	san-	.	.	.
=7-	=7-	=7-	=7-	=7-	=7-	=7	=7	=7	=7-	=7-
!	!	!	!LO:TX:t=P:problem=kreska pseudotaktowa	!	!	!	!	!	!	!
0B-	San	.	00d	-ctus	.	2d/	.	.	0r	.
*	*	*	*	*Xij	*	*	*	*	*	*
.	.	.	.	.	.	2f\	.	.	.	.
*	*	*	*	*	*	*custos:g	*	*	*	*
*	*	*	*	*	*	*xywh-#232:1278,1277,4304,913	*	*	*	*
!	!	!	!	!	!	!LO:LB:g=original	!	!	!	!
.	.	.	.	.	.	2g\	.	.	.	.
!	!	!	!	!	!	!LO:TX:t=P:problem=kreska pseudotaktowa	!	!	!	!
.	.	.	.	.	.	2f\	.	.	.	.
=8	=8	=8	=8-	=8-	=8-	=8	=8	=8	=8-	=8-
!LO:TX:t=P:problem=kreska pseudotaktowa	!	!	!	!	!	!	!	!	!LO:TX:t=P:problem=kreska pseudotaktowa	!
1G	.	.	.	.	.	2.b-\	.	.	0B-	Sanc-
.	.	.	.	.	.	8a\L	.	.	.	.
.	.	.	.	.	.	8g\J	.	.	.	.
!	!	!	!	!	!	!LO:TX:t=P:problem=kreska pseudotaktowa	!	!	!	!
0d	ctus,	.	.	.	.	1f	.	.	.	.
=9-	=9-	=9-	=9-	=9-	=9-	=9	=9	=9	=9	=9
!	!	!	!	!	!	!	!	!	!LO:TX:t=P:problem=kreska pseudotaktowa	!
.	.	.	00r	.	.	1.g	.	.	1G	.
!LO:TX:t=P:problem=kreska pseudotaktowa	!	!	!	!	!	!	!	!	!	!
0B-	.	.	.	.	.	.	.	.	0d	-tus
.	.	.	.	.	.	4f\	.	.	.	.
!	!	!	!	!	!	!LO:TX:t=P:problem=kreska pseudotaktowa	!	!	!	!
.	.	.	.	.	.	4e\	.	.	.	.
=10-	=10-	=10-	=10-	=10-	=10-	=10	=10	=10-	=10-	=10-
!	!	!	!	!	!	!LO:TX:t=P:problem=kreska pseudotaktowa	!	!	!	!
.	.	.	.	.	.	1f	-ctus;	.	.	.
!	!	!	!	!	!	!	!	!	!LO:TX:t=P:problem=kreska pseudotaktowa	!
2.f\	san-	.	.	.	.	1r	.	.	1B-	san-
4e\	.	.	.	.	.	.	.	.	.	.
=11-	=11-	=11-	=11-	=11-	=11-	=11-	=11-	=11-	=11	=11
!	!	!	!	!	!	!LO:TX:t=P:problem=kreska pseudotaktowa	!	!	!	!
4d\	-ctus,	.	0r	.	.	00r	.	.	1.f	-ctus
4c\	.	.	.	.	.	.	.	.	.	.
1d	.	.	.	.	.	.	.	.	.	.
4c\	.	.	.	.	.	.	.	.	4e/	.
!LO:TX:t=P:problem=kreska pseudotaktowa	!	!	!	!	!	!	!	!	!LO:TX:t=P:problem=kreska pseudotaktowa	!
4B-\	.	.	.	.	.	.	.	.	4d/	.
=12	=12	=12	=12-	=12-	=12-	=12-	=12-	=12-	=12	=12
!	!	!	!LO:TX:t=P:problem=kreska pseudotaktowa	!	!	!	!	!	!	!
2A/	.	.	1r	.	.	.	.	.	2e/	.
1d	.	.	.	.	.	.	.	.	2d/	.
.	.	.	2r	.	.	.	.	.	1e	.
!LO:TX:t=P:problem=kreska pseudotaktowa	!	!	!LO:TX:t=P:problem=kreska pseudotaktowa	!	!	!	!	!	!	!
2c\	.	.	2g\	san-	.	.	.	.	.	.
=13	=13	=13	=13	=13	=13	=13-	=13-	=13-	=13-	=13-
!LO:TX:t=P:problem=kreska pseudotaktowa	!	!	!	!	!	!	!	!	!LO:TX:t=P:problem=kreska pseudotaktowa	!
1d	.	.	2f\	.	.	2r	.	.	1d	.
*	*	*	*	*	*	*	*ij	*	*	*
*	*	*	*custos:d	*	*	*	*	*	*	*
*	*	*	*xywh-#427:5669,2668,4393,1062	*	*	*	*	*	*	*
!	!	!	!LO:LB:g=original	!	!	!	!	!	!	!
!	!	!	!LO:TX:t=P:problem=kreska pseudotaktowa	!	!	!	!	!	!	!
.	.	.	2d/	.	.	1d	San-	.	.	.
!	!	!	!	!	!	!	!	!	!LO:TX:a:t=6	!
2r	.	.	1e	.	.	.	.	.	1r	.
*custos:A	*	*	*	*	*	*	*	*	*	*
*xywh-#598:5696,2849,4349,914	*	*	*	*	*	*	*	*	*	*
!LO:LB:g=original	!	!	!	!	!	!	!	!	!	!
!LO:TX:t=P:problem=kreska pseudotaktowa	!	!	!	!	!	!LO:TX:t=P:problem=kreska pseudotaktowa	!	!	!	!
2A/	San-	.	.	.	.	2c/	.	.	.	.
=14	=14	=14	=14-	=14-	=14-	=14	=14	=14	=14-	=14-
2B-\	.	.	2d/	-ctus,	.	2d/	.	.	00r	.
!	!	!	!LO:TX:t=P:problem=kreska pseudotaktowa	!	!	!	!	!	!	!
2G/	-ctus,	.	2g\	.	.	2B-/	.	.	.	.
*	*	*	*	*	*	*lig	*	*	*	*
1A	.	.	2e/	.	.	1c	.	.	.	.
.	.	.	4f\	.	.	.	.	.	.	.
!	!	!	!LO:TX:t=P:problem=kreska pseudotaktowa	!	!	!	!	!	!	!
.	.	.	4e\	.	.	.	.	.	.	.
=15-	=15-	=15-	=15	=15	=15	=15-	=15-	=15-	=15-	=15-
!LO:TX:t=P:problem=kreska pseudotaktowa	!	!	!	!	!LO:TX:t=P:problem=kreska pseudotaktowa	!	!	!	!	!
1D	.	.	4f\	.	.	1d	.	.	.	.
.	.	.	4g\	.	.	.	.	.	.	.
.	.	.	2.a\	.	.	.	.	.	.	.
*	*	*	*	*	*	*Xlig	*	*	*	*
1r	.	.	.	.	.	4c/	.	.	.	.
.	.	.	4g\	.	.	4B-/	.	.	.	.
.	.	.	1g\	.	.	4A/	.	.	.	.
!	!	!	!	!	!	!LO:TX:t=P:problem=kreska pseudotaktowa	!	!	!	!
.	.	.	.	.	.	4G/	.	.	.	.
=16-	=16-	=16-	=16-	=16-	=16-	=16	=16	=16	=16-	=16-
!	!	!	!	!	!	!	!	!	!LO:TX:t=P:problem=kreska pseudotaktowa	!
1D	san-	.	.	.	.	1A	.	.	1r	.
!	!	!	!LO:TX:t=P:problem=kreska pseudotaktowa	!	!	!	!	!	!	!
.	.	.	2f\	.	.	.	.	.	.	.
*	*	*	*	*	*	*custos:G	*	*	*	*
*	*	*	*	*	*	*xywh-#232:1341,2029,4230,873	*	*	*	*
!	!	!	!LO:TX:t=P:problem=kreska pseudotaktowa	!	!	!	!	!	!	!
!	!	!	!	!	!	!LO:LB:g=original	!	!	!	!
2E/	.	.	1g	.	.	2G/	.	.	2r	.
!LO:TX:t=P:problem=kreska pseudotaktowa	!	!	!	!	!	!	!	!	!	!
2C/	.	.	.	.	.	1c/	.	.	2e/	San-
*	*	*	*	*	*	*	*	*	*custos:f	*
!	!	!	!	!	!	!	!	!	!LO:LB:g=original	!
=17	=17	=17	=17-	=17-	=17-	=17-	=17-	=17-	=17-	=17-
*	*	*	*	*	*	*	*	*	*xywh-#41:1036,1409,4373,940	*
1D	-ctus,	.	0r	.	.	.	.	.	2f\	-ctus
!	!	!	!	!	!	!LO:TX:t=P:problem=kreska pseudotaktowa	!	!	!LO:TX:t=P:problem=kreska pseudotaktowa	!
.	.	.	.	.	.	2B-/	.	.	2d/	.
*	*	*	*	*	*	*	*	*	*	*ij
4C/	.	.	.	.	.	2.c/	.	.	1e	San-
4D/	.	.	.	.	.	.	.	.	.	.
4E/	.	.	.	.	.	.	.	.	.	.
!LO:TX:t=P:problem=kreska pseudotaktowa	!	!	!	!	!	!	!	!	!	!
4F/	.	.	.	.	.	4A/	.	.	.	.
=18	=18	=18	=18-	=18-	=18-	=18-	=18-	=18-	=18-	=18-
!	!	!	!LO:TX:t=P:problem=kreska pseudotaktowa	!	!	!	!	!	!	!
4G/	.	.	1r	.	.	4B-/	.	.	2d/	.
4A/	.	.	.	.	.	4c/	.	.	.	.
4B-\	.	.	.	.	.	1d	.	.	2.g\	.
4G/	.	.	.	.	.	.	.	.	.	.
1A	.	.	2r	.	.	.	.	.	.	.
.	.	.	.	.	.	.	.	.	8f\L	.
.	.	.	.	.	.	.	.	.	8e\J	.
!	!	!	!LO:TX:t=P:problem=kreska pseudotaktowa	!	!	!LO:TX:t=P:problem=kreska pseudotaktowa	!	!	!LO:TX:t=P:problem=kreska pseudotaktowa	!
.	.	.	2a\	Do-	.	2c/	.	.	2f\	.
=19-	=19-	=19-	=19	=19	=19	=19	=19	=19	=19	=19
!LO:TX:t=P:problem=kreska pseudotaktowa	!	!	!	!	!	!	!	!	!	!
1G	.	.	2b-\	-mi-	.	1d	-ctus	.	2g\	.
!	!	!	!LO:TX:t=P:problem=kreska pseudotaktowa	!	!	!	!	!	!	!
.	.	.	2g\	.	.	.	.	.	2e/	.
1r	.	.	2.b-\	-nus	.	2r	.	.	2d/	.
!	!	!	!	!	!	!LO:TX:t=P:problem=kreska pseudotaktowa	!	!	!LO:TX:t=P:problem=kreska pseudotaktowa	!
.	.	.	.	.	.	2g\	San-	.	2b-\	.
.	.	.	8a\L	De-	.	.	.	.	.	.
!	!	!	!LO:TX:t=P:problem=kreska pseudotaktowa	!	!	!	!	!	!	!
.	.	.	8g\J	.	.	.	.	.	.	.
*	*	*	*clefC3	*	*	*	*	*	*	*
=20-	=20-	=20-	=20-	=20-	=20-	=20	=20	=20	=20	=20
*	*	*	*custos:f	*	*	*	*	*	*	*
*	*	*	*xywh-#428:1041,438,4294,966	*	*	*	*	*	*	*
!	!	!	!LO:PB:g=original	!	!	!	!	!	!	!
00r	.	.	2f\	.	.	2a\	.	.	2a\	.
.	.	.	2g\	-us	.	2b-\	.	.	1g	.
!	!	!	!LO:TX:t=P:problem=kreska pseudotaktowa	!	!	!LO:TX:t=P:problem=kreska pseudotaktowa	!	!	!	!
.	.	.	1d	.	.	1a	.	.	.	.
!	!	!	!	!	!	!	!	!	!LO:TX:t=P:problem=kreska pseudotaktowa	!
.	.	.	.	.	.	.	.	.	2f\	.
=21-	=21-	=21-	=21	=21	=21	=21	=21	=21	=21	=21
.	.	.	0r	.	.	2g\	.	.	2g\	.
.	.	.	.	.	.	2b-\	.	.	2d/	.
.	.	.	.	.	.	4a\	.	.	4c/	.
.	.	.	.	.	.	4g\	.	.	4B-/	.
.	.	.	.	.	.	1g\	.	.	4A/	.
!	!	!	!	!	!	!	!	!	!LO:TX:t=P:problem=kreska pseudotaktowa	!
.	.	.	.	.	.	.	.	.	4G/	.
*	*	*	*	*	*	*	*	*	*custos:A	*
!	!	!	!	!	!	!	!	!	!LO:LB:g=original	!
=22-	=22-	=22-	=22-	=22-	=22-	=22-	=22-	=22-	=22	=22
*	*	*	*	*	*	*	*	*	*xywh-#41:1001,2095,4495,1004	*
!LO:TX:t=P:problem=kreska pseudotaktowa	!	!	!LO:TX:t=P:problem=kreska pseudotaktowa	!	!	!	!	!	!	!
1D	do-	.	1r	.	.	.	.	.	1A	-ctus
*	*	*	*	*	*	*	*	*	*	*Xij
!	!	!	!	!	!	!LO:TX:t=P:problem=kreska pseudotaktowa	!	!	!	!
.	.	.	.	.	.	2f\	.	.	.	.
*custos:E	*	*	*	*	*	*custos:g	*	*	*	*
*xywh-#599:987,647,4340,898	*	*	*	*	*	*xywh-#232:1278,2777,4281,1344	*	*	*	*
!LO:PB:g=original	!	!	!	!	!	!LO:LB:g=original	!	!	!	!
!	!	!	!	!	!	!LO:TX:t=P:problem=kreska pseudotaktowa	!	!	!LO:TX:t=P:problem=kreska pseudotaktowa	!
2E/	.	.	2r	.	.	1g	-ctus	.	1G	.
*	*	*	*	*ij	*	*	*Xij	*	*	*
!LO:TX:t=P:problem=kreska pseudotaktowa	!	!	!LO:TX:t=P:problem=kreska pseudotaktowa	!	!	!	!	!	!	!
2C/	-mi-	.	2e\	Do-	.	.	.	.	.	.
=23	=23	=23	=23	=23	=23	=23	=23	=23	=23	=23
1D	-nus	.	2f\	-mi-	.	1r	.	.	00r	.
.	.	.	2d/	-nus	.	.	.	.	.	.
!	!	!	!LO:TX:t=P:problem=kreska pseudotaktowa	!	!	!	!	!	!	!
4C/	.	.	1e	De-	.	2r	.	.	.	.
4D/	de-	.	.	.	.	.	.	.	.	.
4E/	-us	.	.	.	.	2.g\	do-	.	.	.
!LO:TX:t=P:problem=kreska pseudotaktowa	!	!	!	!	!	!	!	!	!	!
4F/	.	.	.	.	.	.	.	.	.	.
=24	=24	=24	=24	=24	=24	=24-	=24-	=24-	=24-	=24-
4G/	.	.	2.d/	.	.	.	.	.	.	.
4A/	.	.	.	.	.	4f\	-mi-	.	.	.
!LO:TX:t=P:problem=kreska pseudotaktowa	!	!	!	!	!	!	!	!	!	!
2B-/	.	.	.	.	.	4g\	.	.	.	.
!	!	!	!LO:TX:t=P:problem=kreska pseudotaktowa	!	!	!LO:TX:t=P:problem=kreska pseudotaktowa	!	!	!	!
.	.	.	4c/	.	.	4a\	.	.	.	.
2G/	.	.	4d/	.	.	2b-\	-mi-	.	.	.
.	.	.	4e\	.	.	.	.	.	.	.
2A/	.	.	1f\	.	.	2a\	-nus	.	.	.
=25-	=25-	=25-	=25-	=25-	=25-	=25-	=25-	=25-	=25-	=25-
!	!	!	!	!	!	!	!	!	!LO:TX:t=P:problem=kreska pseudotaktowa	!
2D/	.	.	.	.	.	2.f\	de-	.	1r	.
!	!	!	!LO:TX:t=P:problem=kreska pseudotaktowa	!	!	!	!	!	!	!
2.d\	ſab-	.	2d/	.	.	.	.	.	.	.
!	!	!	!	!	!	!LO:TX:t=P:problem=kreska pseudotaktowa	!	!	!	!
.	.	.	.	.	.	4g\	-us	.	.	.
.	.	.	1e	.	.	1a	.	.	1A	do-
8c\L	-ba-	.	.	.	.	.	.	.	.	.
8B-\J	.	.	.	.	.	.	.	.	.	.
2c\	-oth,	.	.	.	.	.	.	.	.	.
=26-	=26-	=26-	=26-	=26-	=26-	=26-	=26-	=26-	=26-	=26-
!LO:TX:t=P:problem=kreska pseudotaktowa	!	!	!LO:TX:t=P:problem=kreska pseudotaktowa	!	!	!	!	!	!	!
1d	.	.	0d	.	.	2f\	.	.	2B-/	-mi-
!	!	!	!	!	!	!	!	!	!LO:TX:t=P:problem=kreska pseudotaktowa	!
.	.	.	.	.	.	1g	ſab-	.	2G/	-nus
1D	do-	.	.	.	.	.	.	.	1A	.
.	.	.	.	.	.	2f\	-ba-	.	.	.
=27-	=27-	=27-	=27	=27	=27	=27-	=27-	=27-	=27-	=27-
!	!	!	!	!	!	!LO:TX:t=P:problem=kreska pseudotaktowa	!	!	!	!
1.G	-mi-	.	0B-	-us	.	0g	-oth,	.	4G/	de-
*	*	*	*	*Xij	*	*	*	*	*	*
.	.	.	.	.	.	.	.	.	4A/	-us
.	.	.	.	.	.	.	.	.	4B-/	.
!	!	!	!	!	!	!	!	!	!LO:TX:t=P:problem=kreska pseudotaktowa	!
.	.	.	.	.	.	.	.	.	4c/	.
.	.	.	.	.	.	.	.	.	4d/	.
.	.	.	.	.	.	.	.	.	4c/	.
!LO:TX:t=P:problem=kreska pseudotaktowa	!	!	!	!	!	!	!	!	!	!
2G/	-nus	.	.	.	.	.	.	.	4d/	.
!	!	!	!	!	!	!	!	!	!LO:TX:t=P:problem=kreska pseudotaktowa	!
.	.	.	.	.	.	.	.	.	4e/	.
=28	=28	=28	=28-	=28-	=28-	=28	=28	=28	=28	=28
2F/	de-	.	2A/	ſab-	.	0r	.	.	2f\	.
*custos:G	*	*	*custos:B-	*	*	*	*	*	*	*
*xywh-#599:1015,1366,4245,904	*	*	*xywh-#428:1075,1217,4288,909	*	*	*	*	*	*	*
!LO:LB:g=original	!	!	!LO:LB:g=original	!	!	!	!	!	!	!
!	!	!	!LO:TX:t=P:problem=kreska pseudotaktowa	!	!	!	!	!	!	!
2.G/	-us	.	2.B-/	.	.	.	.	.	2.e-X/	.
4F/	.	.	4A/	.	.	.	.	.	4d/	.
!	!	!	!	!	!	!	!	!	!LO:TX:t=P:problem=kreska pseudotaktowa	!
4E/	ſab-	.	1d\	.	.	.	.	.	2d/	.
4D/	.	.	.	.	.	.	.	.	.	.
=29-	=29-	=29-	=29-	=29-	=29-	=29-	=29-	=29-	=29	=29
1E	-ba-	.	.	.	.	2r	.	.	2.g\	ſab-
!	!	!	!LO:TX:t=P:problem=kreska pseudotaktowa	!	!	!LO:TX:t=P:problem=kreska pseudotaktowa	!	!	!	!
.	.	.	2c/	.	.	2e/	do-	.	.	.
.	.	.	.	.	.	.	.	.	4a\	.
*	*	*	*	*	*	*	*	*	*custos:b-	*
*	*	*	*	*	*	*	*	*	*xywh-#41:938,2851,4472,1367	*
!	!	!	!	!	!	!	!	!	!LO:LB:g=original	!
!LO:TX:t=P:problem=kreska pseudotaktowa	!	!	!	!	!	!	!	!	!	!
1D	-oth;	.	1d	-ba-	.	2f\	-mi-	.	2b-\	-ba-
.	.	.	.	.	.	2d/	-n(us)-	.	2a\	-oth
=30	=30	=30	=30-	=30-	=30-	=30-	=30-	=30-	=30-	=30-
!	!	!	!LO:TX:t=P:problem=kreska pseudotaktowa	!	!	!LO:TX:t=P:problem=kreska pseudotaktowa	!	!	!LO:TX:t=P:problem=kreska pseudotaktowa	!
1r	.	.	1G	-oth;	.	1e	-de-	.	1g	.
*	*	*	*	*	*	*custos:d	*	*	*	*
*	*	*	*	*	*	*xywh-#232:5913,524,4477,1028	*	*	*	*
!	!	!	!	!	!	!LO:PB:g=original	!	!	!	!
1D	do-	.	1r	.	.	2d/	-us	.	4f\	.
.	.	.	.	.	.	.	.	.	4e\	.
.	.	.	.	.	.	2.a\	ſab-	.	4d/	.
.	.	.	.	.	.	.	.	.	4c/	.
=31-	=31-	=31-	=31-	=31-	=31-	=31-	=31-	=31-	=31-	=31-
2E-X/	-mi-	.	2r	.	.	.	.	.	2B-/	.
.	.	.	.	.	.	4g\	.	.	.	.
!LO:TX:t=P:problem=kreska pseudotaktowa	!	!	!LO:TX:t=P:problem=kreska pseudotaktowa	!	!	!	!	!	!LO:TX:t=P:problem=kreska pseudotaktowa	!
2C/	-nus	.	2c/	do-	.	1g	.	.	2.e/	do-
1D	.	.	2B-/	-mi-	.	.	.	.	.	.
.	.	.	.	.	.	.	.	.	4d/	.
!	!	!	!	!	!	!LO:TX:t=P:problem=kreska pseudotaktowa	!	!	!	!
.	.	.	2A/	.	.	2f\	-ba-	.	1d/	-mi-
=32-	=32-	=32-	=32-	=32-	=32-	=32	=32	=32	=32-	=32-
!LO:TX:t=P:problem=kreska pseudotaktowa	!	!	!LO:TX:t=P:problem=kreska pseudotaktowa	!	!	!	!	!	!	!
1Eny	de-	.	1G	-nus	.	1g	-oth	.	.	.
!	!	!	!	!	!	!	!	!	!LO:TX:t=P:problem=kreska pseudotaktowa	!
.	.	.	.	.	.	.	.	.	2c/	-nuS
*	*	*	*	*	*	*	*ij	*	*	*
2.D/	-us	.	2A/	de-	.	2f\	ſab-	.	4d/	.
.	.	.	.	.	.	.	.	.	4e/	de-
.	.	.	2d\	-us	.	2.f\	-ba-	.	4f\	-us
!	!	!	!	!	!	!	!	!	!LO:TX:t=P:problem=kreska pseudotaktowa	!
4E/	ſab-	.	.	.	.	.	.	.	4g\	.
=33-	=33-	=33-	=33-	=33-	=33-	=33-	=33-	=33-	=33	=33
2F/	-ba-	.	4c/	.	.	.	.	.	2a\	.
.	.	.	4B-/	ſab-	.	4e/	.	.	.	.
!LO:TX:t=P:problem=kreska pseudotaktowa	!	!	!	!	!	!	!	!	!	!
2G/	-oth;	.	4A/	-ba-	.	4d/	.	.	1g	ſab-
!	!	!	!LO:TX:t=P:problem=kreska pseudotaktowa	!	!	!LO:TX:t=P:problem=kreska pseudotaktowa	!	!	!	!
.	.	.	4G/	.	.	4c/	.	.	.	.
1D	.	.	1A	-oth,	.	1d	.	.	.	.
.	.	.	.	.	.	.	.	.	2f\	-ba-
=34-	=34-	=34-	=34-	=34-	=34-	=34-	=34-	=34-	=34-	=34-
!	!	!	!	!	!	!LO:TX:t=P:problem=było \nPleni&colon; \ntacet\nale tacet skreślono, zostało&colon;\nPleni&colon; vide&colon;\npost agn(us) ultimum\nDo tego jest kustosz, ale odnoszący nie do pleni, tylko do osanna (czyli kustosz sprzed dopisanego Pleni). 	!	!	!LO:TX:a:t=Pleni Vide\npoſt Agnus&colon; \n#	!
!	!	!	!	!	!	!LO:TX:a:t=Pleni&colon; vide&colon;\npost agn(us) ultimum	!	!	!	!
0G\l;;	.	.	0Gl	.	.	0dl	-oth	.	0gl	-oth
*	*	*	*	*	*	*	*Xij	*	*	*
!LO:PB:g=original	!	!	!	!	!	!LO:PB:g=oiriginal	!	!	!LO:PB:g=original	!
=35||-	=35||-	=35||-	=35||-	=35||-	=35||-	=35||-	=35||-	=35||-	=35||-	=35||-
*xywh-#599:999,2039,4284,904	*	*	*xywh-#428:1052,1905,4328,1000	*	*	*xywh-#235:1150,549,4285,954	*	*	*xywh-#43:1378,2655,4233,1279	*
*M2/1	*	*	*M2/1	*	*	*M2/1	*	*	*M2/1	*
*met(C|)	*	*	*met(C|)	*	*	*met(C|)	*	*	*met(C|)	*
*custos:B-	*	*custos:B-	*	*	*	*	*	*	*	*
!	!	!	!	!	!	!	!	!	!LO:TX:t=P:problem=partia Pleni sunt wpisana na końcu mszy	!
!LO:TX:a:t=Dvo:rj	!	!	!	!	!	!	!	!	!LO:TX:b:t=#:rj	!
!LO:LB:g=original	!	!	!LO:LB:g=original	!	!	!	!	!	!	!
0r	.	.	0B-	Ple-	.	0r	.	.	1f	Ple-
!	!	!	!	!	!	!	!	!	!LO:TX:t=P:problem=kreska pseudotaktowa	!
.	.	.	.	.	.	.	.	.	1d	-ni
*	*	*	*	*	*	*clefC3	*	*	*	*
=36-	=36-	=36-	=36-	=36-	=36-	=36-	=36-	=36-	=36	=36
!LO:TX:t=P:problem=kreska pseudotaktowa	!	!	!LO:TX:t=P:problem=kreska pseudotaktowa	!	!	!	!	!	!	!
1r	.	.	1G	-ni	.	0B-	Ple-	.	1g	ſunt
0B-	Ple-	.	0d	ſunt	.	.	.	.	1f	ce-
=37-	=37-	=37-	=37-	=37-	=37-	=37-	=37-	=37-	=37-	=37-
!	!	!	!	!	!	!LO:TX:t=P:problem=kreska pseudotaktowa	!	!	!	!
.	.	.	.	.	.	1G	-ni	.	1b-	-li
!	!	!	!LO:TX:t=P:problem=kreska pseudotaktowa	!	!	!	!	!	!LO:TX:t=P:problem=kreska pseudotaktowa	!
1G	.	.	1B-	.	.	1d	ſu(n)t	.	1b-	et
=38-	=38-	=38-	=38	=38	=38	=38-	=38-	=38-	=38	=38
!LO:TX:t=P:problem=kreska pseudotaktowa	!	!	!	!	!	!	!	!	!	!
1d	-ni	.	1f	c(ae)-	.	2.B-/	c(ae)-	.	0b-	ter-
.	.	.	.	.	.	4c/	-li	.	.	.
!	!	!	!	!	!	!LO:TX:t=P:problem=kreska pseudotaktowa	!	!	!	!
2.B-\	ſunt	.	2d\	-li	.	1d	.	.	.	.
.	.	.	2.f\	.	.	.	.	.	.	.
4c\	c(ae)-	.	.	.	.	.	.	.	.	.
=39-	=39-	=39-	=39-	=39-	=39-	=39	=39	=39	=39-	=39-
!	!	!	!	!	!	!	!	!	!LO:TX:t=P:problem=kreska pseudotaktowa	!
4d\	.	.	.	.	.	1r	.	.	0a	-ra,
4c\	.	.	4e\	et	.	.	.	.	.	.
1d	.	.	4f\	ter-	.	.	.	.	.	.
!	!	!	!LO:TX:t=P:problem=kreska pseudotaktowa	!	!	!	!	!	!	!
.	.	.	4d\	-ra,	.	.	.	.	.	.
*	*	*	*	*	*	*	*ij	*	*	*
.	.	.	1e	.	.	1A	ple-	.	.	.
2c\	-li	.	.	.	.	.	.	.	.	.
=40-	=40-	=40-	=40-	=40-	=40-	=40-	=40-	=40-	=40	=40
!LO:TX:t=P:problem=kreska pseudotaktowa	!	!	!LO:TX:t=P:problem=kreska pseudotaktowa	!	!	!	!	!	!	!
1d	.	.	0d	.	.	2B-/	-ni	.	2r	.
*	*	*	*	*	*	*	*	*	*	*ij
!	!	!	!	!	!	!LO:TX:t=P:problem=kreska pseudotaktowa	!	!	!	!
.	.	.	.	.	.	2G/	ſu(n)t	.	2g\	ple-
2r	.	.	.	.	.	2.B-/	c(ae)-	.	2f/	-ni
1G/	ple-	.	.	.	.	.	.	.	1g\	ſunt
.	.	.	.	.	.	4c/	.	.	.	.
=41-	=41-	=41-	=41-	=41-	=41-	=41-	=41-	=41-	=41-	=41-
.	.	.	2r	.	.	4d/	.	.	.	.
.	.	.	.	.	.	4e\	.	.	.	.
*	*	*	*	*ij	*	*	*	*	*	*
!LO:TX:t=P:problem=kreska pseudotaktowa	!	!	!	!	!	!LO:TX:t=P:problem=kreska pseudotaktowa	!	!	!LO:TX:t=P:problem=kreska pseudotaktowa	!
2F/	-ni	.	1d	Ple-	.	2f\	.	.	2a\	.
!	!	!	!	!	!	!LO:N:acc=#	!	!	!	!
!	!	!	!	!	!	!LO:TX:t=P:problem=# below	!	!	!	!
2G/	ſu(n)t	.	.	.	.	1en	.	.	2b-\	ce-
!LO:TX:t=P:problem=kreska pseudotaktowa	!	!	!LO:TX:t=P:problem=kreska pseudotaktowa	!	!	!	!	!	!	!
2A/	c(ae)-	.	2c/	-ni	.	.	.	.	4a\	.
!	!	!	!	!	!	!	!	!	!LO:TX:t=P:problem=kreska pseudotaktowa	!
.	.	.	.	.	.	.	.	.	4g\	.
*custos:B-	*	*	*	*	*custos:d	*	*	*	*	*
!LO:LB:g=original	!	!	!	!	!	!LO:LB:g=original	!	!	!	!
=42	=42	=42	=42	=42	=42	=42-	=42-	=42-	=42	=42
*xywh-#599:942,2758,4374,949	*	*	*	*	*	*xywh-#235:1190,1325,4335,926	*	*	*	*
2B-\	-li	.	2d\	ſunt	.	2d/	.	.	2f\	-li
!	!	!	!LO:TX:t=P:problem=kreska pseudotaktowa	!	!	!	!	!	!	!
4A/	.	.	2e\	.	.	4c/	.	.	2g\	et
!LO:TX:t=P:problem=kreska pseudotaktowa	!	!	!	!	!	!LO:TX:t=P:problem=kreska pseudotaktowa	!	!	!	!
4G/	.	.	.	.	.	4B-/	.	.	.	.
2F/	et	.	4f\	c(ae)-	.	2A/	.	.	2a\	.
.	.	.	4e\	.	.	.	.	.	.	.
*	*	*	*	*	*	*	*	*	*custos:b-	*
*	*	*	*	*	*	*	*	*	*xywh-#43:5841,515,4411,986	*
!	!	!	!	!	!	!	!	!	!LO:PB:g=original	!
1G/	.	.	4d\	.	.	2G/	.	.	1b-\	ter-
.	.	.	4c/	.	.	.	.	.	.	.
=43-	=43-	=43-	=43-	=43-	=43-	=43-	=43-	=43-	=43-	=43-
*	*	*	*custos:B-	*	*	*	*	*	*	*
*	*	*	*xywh-#428:1075,2673,4168,1336	*	*	*	*	*	*	*
!	!	!	!LO:LB:g=original	!	!	!	!	!	!	!
!	!	!	!	!	!	!LO:TX:t=P:problem=kreska pseudotaktowa	!	!	!	!
.	.	.	2B-/	-li	.	0d	.	.	.	.
!LO:TX:t=P:problem=kreska pseudotaktowa	!	!	!	!	!	!	!	!	!	!
2F/	.	.	2.f\	et	.	.	.	.	4a\	.
!	!	!	!	!	!	!	!	!	!LO:TX:t=P:problem=kreska pseudotaktowa	!
.	.	.	.	.	.	.	.	.	4g\	.
2D/	.	.	.	.	.	.	.	.	1f	-ra
*	*	*	*	*	*	*	*	*	*	*Xij
.	.	.	4e\	.	.	.	.	.	.	.
2F/	.	.	1d\	ter-	.	.	.	.	.	.
=44-	=44-	=44-	=44-	=44-	=44-	=44	=44	=44	=44-	=44-
1E	ter-	.	.	.	.	2.G/	-li	.	2r	.
*	*	*	*	*	*	*	*Xij	*	*	*
!	!	!	!LO:TX:t=P:problem=kreska pseudotaktowa	!	!	!	!	!	!LO:TX:t=P:problem=kreska pseudotaktowa	!
.	.	.	2c/	.	.	.	.	.	2g\	et
.	.	.	.	.	.	4A/	.	.	.	.
!LO:TX:t=P:problem=kreska pseudotaktowa	!	!	!	!	!	!	!	!	!	!
1D	-ra,	.	0d	-ra	.	2B-/	.	.	2f/	.
*	*	*	*	*Xij	*	*	*	*	*	*
!	!	!	!	!	!	!LO:TX:t=P:problem=kreska pseudotaktowa	!	!	!	!
.	.	.	.	.	.	2A/	.	.	2d/	ter-
=45	=45	=45	=45-	=45-	=45-	=45	=45	=45	=45-	=45-
2r	.	.	.	.	.	2r	.	.	2f/	-ra
*	*ij	*	*	*	*	*	*	*	*	*
!	!	!	!	!	!	!	!	!	!LO:TX:t=P:problem=kreska pseudotaktowa	!
2G/	ple-	.	.	.	.	2B-/	et	.	2g\	glo-
!	!	!	!	!	!	!LO:TX:t=P:problem=kreska pseudotaktowa	!	!	!	!
2F/	-ni	.	2r	.	.	1A	ter-	.	2a\	-ri-
!LO:TX:t=P:problem=kreska pseudotaktowa	!	!	!LO:TX:t=P:problem=kreska pseudotaktowa	!	!	!	!	!	!	!
2D/	ſu(n)t	.	2d\	glo-	.	.	.	.	2f/	-a
=46	=46	=46	=46	=46	=46	=46	=46	=46	=46-	=46-
2E/	c(ae)-	.	2c/	-ri-	.	2G/	-ra	.	2g\	.
!	!	!	!	!	!	!	!	!	!LO:TX:t=P:problem=kreska pseudotaktowa	!
2F/	.	.	2A/	-a	.	1d	glo-	.	2f/	tu-
2G/	.	.	2B-/	tu-	.	.	.	.	1e	-a;
!LO:TX:t=P:problem=kreska pseudotaktowa	!	!	!LO:TX:t=P:problem=kreska pseudotaktowa	!	!	!LO:TX:t=P:problem=kreska pseudotaktowa	!	!	!	!
2A/	.	.	2c/	.	.	2c/	.	.	.	.
=47	=47	=47	=47	=47	=47	=47	=47	=47	=47-	=47-
!	!	!	!	!	!	!	!	!	!LO:TX:t=P:problem=kreska pseudotaktowa	!
4D/	-li	.	1d	.	.	1f	-ria	.	1d	.
4E/	.	.	.	.	.	.	.	.	.	.
4F/	.	.	.	.	.	.	.	.	.	.
4G/	.	.	.	.	.	.	.	.	.	.
*custos:A	*	*	*	*	*	*	*	*	*	*
*xywh-#599:5687,607,4413,965	*	*	*	*	*	*	*	*	*	*
!LO:LB:g=original	!	!	!	!	!	!	!	!	!	!
2A/	.	.	4c/	.	.	1e	tu-	.	1r	.
.	.	.	4B-/	.	.	.	.	.	.	.
1G/	et	.	4A/	.	.	.	.	.	.	.
!	!	!	!LO:TX:t=P:problem=kreska pseudotaktowa	!	!	!	!	!	!	!
.	.	.	4G/	.	.	.	.	.	.	.
=48-	=48-	=48-	=48	=48	=48	=48-	=48-	=48-	=48-	=48-
!	!	!	!LO:TX:t=P:problem=kreska pseudotaktowa	!	!	!LO:TX:t=P:problem=kreska pseudotaktowa	!	!	!	!
.	.	.	1A	.	.	1d	-a	.	2r	.
*	*	*	*	*	*	*	*	*	*	*ij
!LO:TX:t=P:problem=kreska pseudotaktowa	!	!	!	!	!	!	!	!	!LO:TX:t=P:problem=kreska pseudotaktowa	!
2F/	.	.	.	.	.	.	.	.	2f\	tu-
*	*	*	*custos:G	*	*	*	*	*	*	*
*	*	*	*xywh-#428:5731,569,4504,955	*	*	*	*	*	*	*
!	!	!	!LO:PB:g=original	!	!	!	!	!	!	!
2.B-\	ter-	.	4G/	.	.	2r	.	.	1.g	.
.	.	.	4A/	.	.	.	.	.	.	.
*	*	*	*	*	*	*	*ij	*	*	*
.	.	.	4B-/	.	.	4G/	glo-	.	.	.
!	!	!	!LO:TX:t=P:problem=kreska pseudotaktowa	!	!	!LO:TX:t=P:problem=kreska pseudotaktowa	!	!	!	!
4A/	.	.	4c/	.	.	4A/	.	.	.	.
=49-	=49-	=49-	=49	=49	=49	=49	=49	=49	=49-	=49-
2G/	.	.	4d\	.	.	4B-/	-ri-	.	.	.
.	.	.	4e\	.	.	4c/	.	.	.	.
*	*	*	*	*	*	*custos:d	*	*	*	*
*	*	*	*	*	*	*xywh-#235:1212,2039,4179,965	*	*	*	*
!	!	!	!	!	!	!LO:LB:g=original	!	!	!	!
!LO:TX:t=P:problem=kreska pseudotaktowa	!	!	!	!	!	!	!	!	!	!
2F/	.	.	4f\	.	.	2d/	-a	.	2a\	.
.	.	.	8e\L	.	.	.	.	.	.	.
!	!	!	!LO:TX:t=P:problem=kreska pseudotaktowa	!	!	!	!	!	!	!
.	.	.	8f\J	.	.	.	.	.	.	.
!	!	!	!	!	!	!	!	!	!LO:TX:t=P:problem=kreska pseudotaktowa	!
4G/	.	.	2e\	.	.	0G	tu-	.	1g	-a
*	*	*	*	*	*	*	*	*	*	*Xij
4F/	.	.	.	.	.	.	.	.	.	.
4E/	.	.	1d\	.	.	.	.	.	.	.
4D/	.	.	.	.	.	.	.	.	.	.
=50-	=50-	=50-	=50-	=50-	=50-	=50-	=50-	=50-	=50	=50
1E	.	.	.	.	.	.	.	.	2r	.
.	.	.	2c/	.	.	.	.	.	2g\	et
*	*	*	*	*	*	*	*	*	*custos:f	*
*	*	*	*	*	*	*	*	*	*xywh-#43:5852,1284,4245,1003	*
!	!	!	!	!	!	!	!	!	!LO:LB:g=original	!
!LO:TX:t=P:problem=kreska pseudotaktowa	!	!	!LO:TX:t=P:problem=kreska pseudotaktowa	!	!	!LO:TX:t=P:problem=kreska pseudotaktowa	!	!	!	!
1D	-ra	.	0d	-a,	.	1A	-a	.	2f/	ter-
*	*Xij	*	*	*	*	*	*Xij	*	*	*
!	!	!	!	!	!	!	!	!	!LO:TX:t=P:problem=kreska pseudotaktowa	!
.	.	.	.	.	.	.	.	.	2d/	-ra
=51	=51	=51	=51-	=51-	=51-	=51-	=51-	=51-	=51	=51
2r	.	.	.	.	.	2r	.	.	2.f\	glo-
2d\	glo-	.	.	.	.	2f\	et	.	.	.
.	.	.	.	.	.	.	.	.	4g\	.
2c\	-ri-	.	2r	.	.	2e\	.	.	4a\	.
.	.	.	.	.	.	.	.	.	4b-\	.
!LO:TX:t=P:problem=kreska pseudotaktowa	!	!	!	!	!	!LO:TX:t=P:problem=kreska pseudotaktowa	!	!	!LO:TX:t=P:problem=kreska pseudotaktowa	!
2A\	-a	.	2a\	glo-	.	2c/	ter-	.	2cc\	-ri-
=52	=52	=52	=52-	=52-	=52-	=52	=52	=52	=52	=52
2B-\	tu-	.	2g\	.	.	2d/	-ra	.	2b-\	-a
!LO:TX:t=P:problem=kreska pseudotaktowa	!	!	!LO:TX:t=P:problem=kreska pseudotaktowa	!	!	!	!	!	!	!
2c\	.	.	2e\	-ri-	.	2g\	glo-	.	1a	.
*custos:d	*	*	*	*	*	*	*	*	*	*
*xywh-#599:5704,1371,4273,937	*	*	*	*	*	*	*	*	*	*
!LO:LB:g=original	!	!	!	!	!	!	!	!	!	!
2d\	.	.	2f\	-a	.	2f\	.	.	.	.
!	!	!	!	!	!	!	!	!	!LO:TX:t=P:problem=kreska pseudotaktowa	!
4c\	.	.	2g\	tu-	.	4e\	-ri-	.	2b-\	tu-
!LO:TX:t=P:problem=kreska pseudotaktowa	!	!	!	!	!	!LO:TX:t=P:problem=kreska pseudotaktowa	!	!	!	!
4B-\	.	.	.	.	.	4d\	-a	.	.	.
=53	=53	=53	=53-	=53-	=53-	=53	=53	=53	=53-	=53-
2A/	.	.	4a\	.	.	2c/	.	.	2cc\	.
.	.	.	4g\	.	.	.	.	.	.	.
2.B-\	.	.	4f\	.	.	2.d/	.	.	2b-\	.
!	!	!	!LO:TX:t=P:problem=kreska pseudotaktowa	!	!	!	!	!	!	!
.	.	.	4e\	.	.	.	.	.	.	.
*	*	*	*clefC2	*	*	*	*	*	*	*
*	*	*	*custos:d	*	*	*	*	*	*	*
*	*	*	*xywh-#428:5801,1206,4294,1086	*	*	*	*	*	*	*
!	!	!	!LO:LB:g=original	!	!	!	!	!	!	!
.	.	.	2d/	.	.	.	.	.	2g\	.
4A/	.	.	.	.	.	4c/	tu-	.	.	.
!	!	!	!	!	!	!LO:TX:t=P:problem=kreska pseudotaktowa	!	!	!LO:TX:t=P:problem=kreska pseudotaktowa	!
4B-\	.	.	1g\	.	.	2d/	-a:	.	2b-\	.
!LO:TX:t=P:problem=kreska pseudotaktowa	!	!	!	!	!	!	!	!	!	!
4G/	.	.	.	.	.	.	.	.	.	.
=54	=54	=54	=54-	=54-	=54-	=54	=54	=54	=54	=54
1A	.	.	.	.	.	1c	.	.	1cc	-a
.	.	.	2f\	.	.	.	.	.	.	.
1G\l;>	-a;	.	1gl	-a,	.	1dl;>	.	.	1b-l;<	.
*	*	*	*	*	*	*clefC2	*	*	*	*
*	*	*	*	*	*	*custos:G	*	*	*custos:G	*
!	!	!	!	!	!	!LO:PB:g=original	!	!	!LO:PB:g=original	!
=55||-	=55||-	=55||-	=55||-	=55||-	=55||-	=55||-	=55||-	=55||-	=55||-	=55||-
*	*	*	*	*	*	*xywh-#232:5904,1271,4345,1046	*	*	*xywh-#41:5687,589,4443,992	*
*M2/1	*	*	*M2/1	*	*	*M2/1	*	*	*M2/1	*
*met(C|)	*	*	*met(C|)	*	*	*met(C|)	*	*	*met(C|)	*
00r	.	.	1G	O-	.	0r	.	.	0r	.
.	.	.	2G/	-ſan-	.	.	.	.	.	.
!	!	!	!LO:TX:t=P:problem=kreska pseudotaktowa	!	!	!	!	!	!	!
.	.	.	2A/	.	.	.	.	.	.	.
=56-	=56-	=56-	=56	=56	=56	=56-	=56-	=56-	=56-	=56-
.	.	.	2B-/	-na	.	1G	O-	.	0r	.
.	.	.	2G/	in	.	.	.	.	.	.
.	.	.	2B-/	ex-	.	2G/	-ſan-	.	.	.
!	!	!	!	!	!	!LO:TX:t=P:problem=kreska pseudotaktowa	!	!	!	!
.	.	.	2c/	-cel-	.	2A/	-na	.	.	.
=57-	=57-	=57-	=57-	=57-	=57-	=57	=57	=57	=57-	=57-
!	!	!	!LO:TX:t=P:problem=kreska pseudotaktowa	!	!	!	!	!	!LO:TX:t=P:problem=kreska pseudotaktowa	!
0r	.	.	0d	-ſis,	.	2B-/	.	.	1G	O-
.	.	.	.	.	.	2G/	in	.	.	.
.	.	.	.	.	.	2B-/	ex-	.	2G/	-ſan-
.	.	.	.	.	.	2c/	-cel-	.	2A/	-na
=58-	=58-	=58-	=58	=58	=58	=58-	=58-	=58-	=58-	=58-
!LO:TX:t=P:problem=kreska pseudotaktowa	!	!	!	!	!	!LO:TX:t=P:problem=kreska pseudotaktowa	!	!	!	!
1G	O-	.	2r	.	.	0d	-ſis,	.	2B-/	in
*	*	*	*	*ij	*	*	*	*	*	*
!	!	!	!	!	!	!	!	!	!LO:TX:t=P:problem=kreska pseudotaktowa	!
.	.	.	1b-	in	.	.	.	.	2G/	ex-
2G/	-ſan-	.	.	.	.	.	.	.	2B-/	-cel-
!LO:TX:t=P:problem=kreska pseudotaktowa	!	!	!LO:TX:t=P:problem=kreska pseudotaktowa	!	!	!	!	!	!	!
2A/	-na	.	2a\	ex-	.	.	.	.	2c/	.
=59	=59	=59	=59	=59	=59	=59-	=59-	=59-	=59-	=59-
2.B-\	.	.	1f	-cel-	.	1r	.	.	2.d/	.
!LO:TX:t=P:problem=kreska pseudotaktowa	!	!	!	!	!	!	!	!	!LO:TX:t=P:problem=kreska pseudotaktowa	!
4A/	.	.	.	.	.	.	.	.	4c/	.
4G/	.	.	0g	.	.	1d	o-	.	4B-/	.
4F/	.	.	.	.	.	.	.	.	4A/	.
*custos:G	*	*	*	*	*	*	*	*	*	*
*xywh-#599:5710,2152,4318,881	*	*	*	*	*	*	*	*	*	*
!LO:LB:g=original	!	!	!	!	!	!	!	!	!	!
1G/	.	.	.	.	.	.	.	.	1B-/	.
=60-	=60-	=60-	=60-	=60-	=60-	=60-	=60-	=60-	=60-	=60-
.	.	.	.	.	.	2.d/	-ſan-	.	.	.
4F/	.	.	.	.	.	.	.	.	4A/	.
!LO:TX:t=P:problem=kreska pseudotaktowa	!	!	!	!	!	!LO:TX:t=P:problem=kreska pseudotaktowa	!	!	!LO:TX:t=P:problem=kreska pseudotaktowa	!
4E/	.	.	.	.	.	4c/	-na	.	4G/	.
*	*	*	*custos:f	*	*	*	*	*	*	*
*	*	*	*xywh-#428:5716,1968,4362,1052	*	*	*	*	*	*	*
!	!	!	!LO:LB:g=original	!	!	!	!	!	!	!
!	!	!	!LO:TX:t=P:problem=kreska pseudotaktowa	!	!	!	!	!	!	!
1D	.	.	1f	-ſis	.	4d/	.	.	2A/	.
*	*	*	*	*Xij	*	*	*	*	*	*
.	.	.	.	.	.	4c/	.	.	.	.
!	!	!	!	!	!	!	!	!	!LO:TX:t=P:problem=kreska pseudotaktowa	!
.	.	.	.	.	.	4B-/	.	.	2f\	.
!	!	!	!	!	!	!LO:TX:t=P:problem=kreska pseudotaktowa	!	!	!	!
.	.	.	.	.	.	4A/	.	.	.	.
*	*	*	*	*	*	*	*	*	*custos:d	*
!	!	!	!	!	!	!	!	!	!LO:LB:g=original	!
=61-	=61-	=61-	=61	=61	=61	=61	=61	=61	=61-	=61-
*	*	*	*	*	*	*	*	*	*xywh-#41:5721,1397,4304,923	*
1G	.	.	00r	.	.	1B-	.	.	4d/	.
.	.	.	.	.	.	.	.	.	4c/	.
.	.	.	.	.	.	.	.	.	4d/	.
!	!	!	!	!	!	!	!	!	!LO:TX:t=P:problem=kreska pseudotaktowa	!
.	.	.	.	.	.	.	.	.	4e/	.
2F/	.	.	.	.	.	2A/	.	.	4f\	.
.	.	.	.	.	.	.	.	.	4d/	.
!LO:TX:t=P:problem=kreska pseudotaktowa	!	!	!	!	!	!	!	!	!	!
2.G/	.	.	.	.	.	2.B-/	in	.	2.e-X/	.
=62	=62	=62	=62-	=62-	=62-	=62-	=62-	=62-	=62-	=62-
.	.	.	.	.	.	.	.	.	.	.
4F/	.	.	.	.	.	4A/	.	.	4d/	.
*	*	*	*	*	*	*clefC3	*	*	*	*
*	*	*	*	*	*	*custos:A	*	*	*	*
*	*	*	*	*	*	*xywh-#232:5870,2018,4327,965	*	*	*	*
!	!	!	!	!	!	!LO:LB:g=original	!	!	!	!
4F/	.	.	.	.	.	1A	ex-	.	1d	.
8E/L	.	.	.	.	.	.	.	.	.	.
8D/J	.	.	.	.	.	.	.	.	.	.
1E	.	.	.	.	.	.	.	.	.	.
!	!	!	!	!	!	!LO:TX:t=P:problem=kreska pseudotaktowa	!	!	!	!
.	.	.	.	.	.	2G/	-cel-	.	2c/	.
=63-	=63-	=63-	=63-	=63-	=63-	=63	=63	=63	=63-	=63-
!LO:TX:t=P:problem=kreska pseudotaktowa	!	!	!	!	!	!	!	!	!	!
*	*	*	*	*	*	*lig	*	*	*	*
!	!	!	!	!	!	!	!	!	!LO:TX:t=P:problem=kreska pseudotaktowa	!
1D	.	.	2r	.	.	1A	-ſis;	.	0d	-ſis
.	.	.	2.f\	o-	.	.	.	.	.	.
2r	.	.	.	.	.	1B-	.	.	.	.
.	.	.	4e/	-ſan-	.	.	.	.	.	.
*	*ij	*	*	*	*	*	*	*	*	*
2d\	o-	.	4f\	-na	.	.	.	.	.	.
.	.	.	4d/	.	.	.	.	.	.	.
!	!	!	!LO:TX:t=P:problem=kreska pseudotaktowa	!	!	!	!	!	!	!
*	*	*	*	*	*	*Xlig	*	*	*	*
=64-	=64-	=64-	=64	=64	=64	=64-	=64-	=64-	=64	=64
!	!	!	!	!	!	!LO:TX:t=P:problem=kreska pseudotaktowa	!	!	!	!
2c\	.	.	2e/	.	.	0A	.	.	0a	o-
!LO:TX:t=P:problem=kreska pseudotaktowa	!	!	!	!	!	!	!	!	!	!
2.d\	.	.	2.f\	in	.	.	.	.	.	.
4c\	.	.	4e\	ex-	.	.	.	.	.	.
!LO:TX:t=P:problem=kreska pseudotaktowa	!	!	!LO:TX:t=P:problem=kreska pseudotaktowa	!	!	!	!	!	!	!
2c\	-ſan-	.	2e\	-cel-	.	.	.	.	.	.
*custos:A	*	*	*	*	*	*	*	*	*	*
!LO:LB:g=original	!	!	!	!	!	!	!	!	!	!
=65	=65	=65	=65	=65	=65	=65	=65	=65	=65-	=65-
*xywh-#599:5693,2831,4273,1134	*	*	*	*	*	*	*	*	*	*
4A\	.	.	4c/	.	.	0r	.	.	1.a	-ſan-
4B-\	.	.	4d/	.	.	.	.	.	.	.
4c\	.	.	4e/	.	.	.	.	.	.	.
!LO:TX:t=P:problem=kreska pseudotaktowa	!	!	!	!	!	!	!	!	!	!
4A\	.	.	4c/	.	.	.	.	.	.	.
!	!	!	!LO:TX:t=P:problem=kreska pseudotaktowa	!	!	!	!	!	!	!
0B-	-na	.	0d	.	.	.	.	.	.	.
*	*Xij	*	*	*	*	*	*	*	*	*
.	.	.	.	.	.	.	.	.	4g\	-na
!	!	!	!	!	!	!	!	!	!LO:TX:t=P:problem=kreska pseudotaktowa	!
.	.	.	.	.	.	.	.	.	4f\	.
=66-	=66-	=66-	=66-	=66-	=66-	=66-	=66-	=66-	=66	=66
.	.	.	.	.	.	2r	.	.	1g	.
*	*	*	*	*	*	*	*ij	*	*	*
!	!	!	!	!	!	!LO:TX:t=P:problem=kreska pseudotaktowa	!	!	!	!
.	.	.	.	.	.	2d\	o-	.	.	.
!LO:TX:t=P:problem=kreska pseudotaktowa	!	!	!	!	!	!	!	!	!LO:TX:t=P:problem=kreska pseudotaktowa	!
1A	.	.	2c/	-ſis	.	2e\	-ſan-	.	0.a	.
*	*	*	*	*ij	*	*	*	*	*	*
!	!	!	!	!	!	!LO:TX:t=P:problem=kreska pseudotaktowa	!	!	!	!
.	.	.	2.f\	o-	.	2c/	-na	.	.	.
=67	=67	=67	=67-	=67-	=67-	=67	=67	=67	=67-	=67-
0r	.	.	.	.	.	4d\	in	.	.	.
.	.	.	4e/	-ſan-	.	4c/	ex-	.	.	.
.	.	.	2.d/	-na	.	2.f\	-cel-	.	.	.
.	.	.	8c/L	ine	.	4e\	.	.	.	.
.	.	.	8B-/J	.	.	.	.	.	.	.
*	*	*	*custos:c	*	*	*	*	*	*	*
*	*	*	*xywh-#428:5727,2736,4316,1052	*	*	*	*	*	*	*
!	!	!	!	!	!	!LO:TX:t=P:problem=kreska pseudotaktowa	!	!	!	!
!	!	!	!LO:LB:g=original	!	!	!	!	!	!	!
!	!	!	!LO:TX:t=P:problem=kreska pseudotaktowa	!	!	!	!	!	!	!
.	.	.	2c/	ex-	.	2e\	.	.	.	.
=68-	=68-	=68-	=68-	=68-	=68-	=68	=68	=68	=68-	=68-
2r	.	.	1d	-cel-	.	2d\	-ſis	.	1r	.
1d	o-	.	.	.	.	1f	in	.	.	.
!	!	!	!LO:TX:t=P:problem=kreska pseudotaktowa	!	!	!	!	!	!	!
.	.	.	1A	-ſis	.	.	.	.	1.a	in
!LO:TX:t=P:problem=kreska pseudotaktowa	!	!	!	!	!	!LO:TX:t=P:problem=kreska pseudotaktowa	!	!	!	!
2c\	-ſan-	.	.	.	.	2e\	ex-	.	.	.
=69	=69	=69	=69	=69	=69	=69	=69	=69	=69-	=69-
1B-	-na	.	1.f	o-	.	1d	-cel-	.	.	.
!	!	!	!	!	!	!	!	!	!LO:TX:t=P:problem=kreska pseudotaktowa	!
.	.	.	.	.	.	.	.	.	2g\	ex-
2A/	.	.	.	.	.	2c/	.	.	2f\	-cel-
*	*	*	*	*	*	*	*	*	*custos:e	*
*	*	*	*	*	*	*	*	*	*xywh-#41:5693,2119,4437,952	*
!	!	!	!	!	!	!	!	!	!LO:LB:g=original	!
!LO:TX:t=P:problem=kreska pseudotaktowa	!	!	!	!	!	!	!	!	!	!
2.G/	in	.	2.g\	-ſan-	.	2.B-/	.	.	2.e/	.
=70-	=70-	=70-	=70-	=70-	=70-	=70-	=70-	=70-	=70-	=70-
.	.	.	.	.	.	.	.	.	.	.
4F/	ex-	.	4a\	.	.	4A/	.	.	4d/	.
*	*	*	*	*	*	*custos:A	*	*	*	*
*	*	*	*	*	*	*xywh-#232:5910,2777,4247,1442	*	*	*	*
!	!	!	!LO:TX:t=P:problem=kreska pseudotaktowa	!	!	!	!	!	!	!
!	!	!	!	!	!	!LO:LB:g=original	!	!	!	!
2D/	-cel-	.	2f\	-na	.	1A	.	.	1d	.
1E	-ſis,	.	1g	in	.	.	.	.	.	.
!	!	!	!	!	!	!LO:TX:t=P:problem=kreska pseudotaktowa	!	!	!LO:TX:t=P:problem=kreska pseudotaktowa	!
.	.	.	.	.	.	2G/	.	.	2c/	-ſis
=71-	=71-	=71-	=71-	=71-	=71-	=71	=71	=71	=71	=71
!LO:TX:t=P:problem=kreska pseudotaktowa	!	!	!	!	!	!LO:TX:t=P:problem=kreska pseudotaktowa	!	!	!	!
0D	.	.	1f	ex-	.	0A	-ſis	.	2.d/	.
*	*	*	*	*	*	*	*Xij	*	*	*
.	.	.	.	.	.	.	.	.	4e/	.
.	.	.	1.d	-cel-	.	.	.	.	4f\	.
.	.	.	.	.	.	.	.	.	4g\	.
!	!	!	!	!	!	!	!	!	!LO:TX:t=P:problem=kreska pseudotaktowa	!
.	.	.	.	.	.	.	.	.	2a\	.
=72	=72	=72	=72-	=72-	=72-	=72-	=72-	=72-	=72	=72
1r	.	.	.	.	.	1r	.	.	2f\	.
.	.	.	4c/	.	.	.	.	.	1b-	.
!	!	!	!LO:TX:t=P:problem=kreska pseudotaktowa	!	!	!	!	!	!	!
.	.	.	4B-/	.	.	.	.	.	.	.
!LO:TX:t=P:problem=kreska pseudotaktowa	!	!	!	!	!	!	!	!	!	!
1F	o-	.	1c	-ſis	.	2.f\	o-	.	.	.
.	.	.	.	.	.	.	.	.	2a\	.
!	!	!	!	!	!	!LO:TX:t=P:problem=kreska pseudotaktowa	!	!	!	!
.	.	.	.	.	.	4e\	.	.	.	.
=73	=73	=73	=73-	=73-	=73-	=73	=73	=73	=73-	=73-
!	!	!	!LO:TX:t=P:problem=kreska pseudotaktowa	!	!	!	!	!	!LO:TX:t=P:problem=kreska pseudotaktowa	!
2G/	-ſan-	.	1B-	.	.	4d\	.	.	0b-	.
.	.	.	.	.	.	4c/	.	.	.	.
*custos:B-	*	*	*	*	*	*	*	*	*	*
*xywh-#600:936,643,4425,943	*	*	*	*	*	*	*	*	*	*
!LO:LB:g=original	!	!	!	!	!	!	!	!	!	!
2.B-/	-na	.	.	.	.	2.d\	-ſan-	.	.	.
.	.	.	2r	.	.	.	.	.	.	.
4A/	.	.	.	.	.	4c\	-na	.	.	.
4G/	.	.	2.d/	o-	.	4B-/	.	.	.	.
!LO:TX:t=P:problem=kreska pseudotaktowa	!	!	!	!	!	!LO:TX:t=P:problem=kreska pseudotaktowa	!	!	!	!
4F/	.	.	.	.	.	4A/	.	.	.	.
=74	=74	=74	=74-	=74-	=74-	=74	=74	=74	=74-	=74-
2G/	in	.	.	.	.	2B-/	.	.	0r	.
.	.	.	4e/	-ſan-	.	.	.	.	.	.
!	!	!	!LO:TX:t=P:problem=kreska pseudotaktowa	!	!	!	!	!	!	!
2.A/	ex-	.	2f\	-na	.	2.c/	in	.	.	.
.	.	.	2e/	.	.	.	.	.	.	.
4G/	.	.	.	.	.	4B-/	.	.	.	.
*	*	*	*custos:f	*	*	*	*	*	*	*
*	*	*	*xywh-#429:1051,497,4237,1029	*	*	*	*	*	*	*
!	!	!	!LO:PB:g=original	!	!	!	!	!	!	!
4F/	.	.	2.f\	in	.	4A/	.	.	.	.
!LO:TX:t=P:problem=kreska pseudotaktowa	!	!	!	!	!	!LO:TX:t=P:problem=kreska pseudotaktowa	!	!	!	!
4E/	.	.	.	.	.	4G/	.	.	.	.
=75	=75	=75	=75-	=75-	=75-	=75	=75	=75	=75-	=75-
2D/	.	.	.	.	.	2F/	.	.	1f	in
.	.	.	4e/	.	.	.	.	.	.	.
2F/	.	.	1d	ex-	.	2A/	ex-	.	.	.
!	!	!	!	!	!	!LO:TX:t=P:problem=kreska pseudotaktowa	!	!	!	!
1E	-cel-	.	.	.	.	1G	-cel-	.	2.g\	ex-
!	!	!	!LO:TX:t=P:problem=kreska pseudotaktowa	!	!	!	!	!	!	!
.	.	.	2c/	.	.	.	.	.	.	.
!	!	!	!	!	!	!	!	!	!LO:TX:t=P:problem=kreska pseudotaktowa	!
.	.	.	.	.	.	.	.	.	4a\	.
=76-	=76-	=76-	=76	=76	=76	=76-	=76-	=76-	=76	=76
!LO:TX:t=P:problem=kreska pseudotaktowa	!	!	!	!	!	!	!	!	!	!
0D	-ſis	.	1d	-cel-	.	2F/	-ſis,	.	2b-\	.
*	*	*	*	*	*	*custos:f	*	*	*	*
*	*	*	*	*	*	*xywh-#233:1281,484,4098,969	*	*	*	*
!	!	!	!	!	!	!LO:PB:g=original	!	!	!	!
.	.	.	.	.	.	2.f\	o-	.	4a\	.
!	!	!	!	!	!	!	!	!	!LO:TX:t=P:problem=kreska pseudotaktowa	!
.	.	.	.	.	.	.	.	.	4g\	.
*	*	*	*	*	*	*	*	*	*custos:f	*
*	*	*	*	*	*	*	*	*	*xywh-#41:5635,2823,4454,1396	*
!	!	!	!LO:TX:t=P:problem=kreska pseudotaktowa	!	!	!	!	!	!	!
!	!	!	!	!	!	!	!	!	!LO:LB:g=original	!
.	.	.	1A	-ſis,	.	.	.	.	2.f\	.
.	.	.	.	.	.	4e\	.	.	.	.
!	!	!	!	!	!	!LO:TX:t=P:problem=kreska pseudotaktowa	!	!	!	!
.	.	.	.	.	.	2d/	-ſan-	.	.	.
!	!	!	!	!	!	!	!	!	!LO:TX:t=P:problem=kreska pseudotaktowa	!
.	.	.	.	.	.	.	.	.	4g\	.
=77-	=77-	=77-	=77-	=77-	=77-	=77	=77	=77	=77	=77
1r	.	.	1r	.	.	2c/	.	.	4a\	.
.	.	.	.	.	.	.	.	.	4b-\	.
!	!	!	!	!	!	!LO:TX:t=P:problem=kreska pseudotaktowa	!	!	!LO:TX:t=P:problem=kreska pseudotaktowa	!
.	.	.	.	.	.	2d/	-na	.	2.a\	.
*	*ij	*	*	*ij	*	*	*	*	*	*
!LO:TX:t=P:problem=kreska pseudotaktowa	!	!	!LO:TX:t=P:problem=kreska pseudotaktowa	!	!	!	!	!	!	!
0D	o-	.	0d	o-	.	2.d/	in	.	.	.
.	.	.	.	.	.	.	.	.	4g\	.
.	.	.	.	.	.	.	.	.	1g\	-cel-
.	.	.	.	.	.	8c/L	ex-	.	.	.
!	!	!	!	!	!	!LO:TX:t=P:problem=kreska pseudotaktowa	!	!	!	!
.	.	.	.	.	.	8B-/J	.	.	.	.
=78-	=78-	=78-	=78-	=78-	=78-	=78-	=78-	=78-	=78-	=78-
.	.	.	.	.	.	4A/	-cel	.	.	.
.	.	.	.	.	.	4G/	.	.	.	.
!	!	!	!	!	!	!LO:TX:t=P:problem=kreska pseudotaktowa	!	!	!LO:TX:t=P:problem=kreska pseudotaktowa	!
.	.	.	.	.	.	2A/	.	.	2f\	-ſis
2E-X/	-ſan-	.	2B-/	.	.	2G/	ſis,	.	2g\	.
*	*	*	*	*	*	*	*ij	*	*	*
!LO:TX:t=P:problem=kreska pseudotaktowa	!	!	!	!	!	!	!	!	!	!
2C/	-na	.	2e-X/	-ſan-	.	2c/	o-	.	4r	.
*	*	*	*	*	*	*	*	*	*	*ij
!	!	!	!	!	!	!	!	!	!LO:TX:t=P:problem=kreska pseudotaktowa	!
.	.	.	.	.	.	.	.	.	4g\	o-
=79	=79	=79	=79-	=79-	=79-	=79-	=79-	=79-	=79	=79
2D/	in	.	2d/	.	.	2A/	-ſan-	.	2f\	-ſan-
!LO:TX:t=P:problem=kreska pseudotaktowa	!	!	!LO:TX:t=P:problem=kreska pseudotaktowa	!	!	!LO:TX:t=P:problem=kreska pseudotaktowa	!	!	!	!
2E/	ex-	.	2c/	.	.	2G/	.	.	2g\	.
2F/	-cel-	.	2A/	-na	.	2c/	.	.	2a\	.
*clefC5	*	*	*	*	*	*	*	*	*	*
*custos:BB-	*	*	*	*	*	*	*	*	*	*
*xywh-#600:975,1344,4307,965	*	*	*	*	*	*	*	*	*	*
!LO:LB:g=original	!	!	!	!	!	!	!	!	!	!
!LO:TX:t=P:problem=kreska pseudotaktowa	!	!	!	!	!	!	!	!	!LO:TX:t=P:problem=kreska pseudotaktowa	!
2BB-/	-ſis	.	2.B-/	in	.	2d/	.	.	2f\	-na
*	*Xij	*	*	*	*	*	*	*	*	*
=80	=80	=80	=80-	=80-	=80-	=80-	=80-	=80-	=80	=80
2r	.	.	.	.	.	2G/	-na	.	2g\	in
.	.	.	4A/	ex-	.	.	.	.	.	.
!	!	!	!LO:TX:t=P:problem=kreska pseudotaktowa	!	!	!LO:TX:t=P:problem=kreska pseudotaktowa	!	!	!	!
2BB-/	o-	.	2B-/	-cel-	.	2d/	in	.	2f\	ex-
2E-X/	-ſan-	.	2G/	.	.	2B-/	.	.	2g\	-cel-
*	*	*	*	*	*	*custos:f	*	*	*	*
*	*	*	*	*	*	*xywh-#233:1230,1325,4305,919	*	*	*	*
!	!	!	!	!	!	!LO:LB:g=original	!	!	!	!
!LO:TX:t=P:problem=kreska pseudotaktowa	!	!	!	!	!	!	!	!	!LO:TX:t=P:problem=kreska pseudotaktowa	!
2D/	-na	.	1d/	.	.	1f\	ex-	.	2a\	.
=81	=81	=81	=81-	=81-	=81-	=81-	=81-	=81-	=81	=81
2BB-/	in	.	.	.	.	.	.	.	2b-\	-ſis
*	*	*	*	*	*	*	*	*	*custos:g	*
*	*	*	*	*	*	*	*	*	*xywh-#42:1125,589,4388,992	*
!	!	!	!LO:TX:t=P:problem=kreska pseudotaktowa	!	!	!LO:TX:t=P:problem=kreska pseudotaktowa	!	!	!	!
!	!	!	!	!	!	!	!	!	!LO:PB:g=original	!
2C/	ex-	.	2c/	.	.	2.e-X\	-cel-	.	2.g\	in
*	*	*	*clefC3	*	*	*	*	*	*	*
*	*	*	*custos:B-	*	*	*	*	*	*	*
*	*	*	*xywh-#429:1080,1310,4328,927	*	*	*	*	*	*	*
!	!	!	!LO:LB:g=original	!	!	!	!	!	!	!
1E	-cel-	.	2B-/	-ſis	.	.	.	.	.	.
.	.	.	.	.	.	4d\	.	.	4f\	ex-
*	*	*	*	*Xij	*	*	*	*	*	*
*	*	*	*	*ij	*	*	*	*	*	*
!	!	!	!LO:TX:t=P:problem=kreska pseudotaktowa	!	!	!	!	!	!LO:TX:t=P:problem=kreska pseudotaktowa	!
.	.	.	2G/	o-	.	4B-/	.	.	2g\	-cel-
!	!	!	!	!	!	!LO:TX:t=P:problem=kreska pseudotaktowa	!	!	!	!
.	.	.	.	.	.	4c/	.	.	.	.
=82-	=82-	=82-	=82	=82	=82	=82	=82	=82	=82	=82
!LO:TX:t=P:problem=kreska pseudotaktowa	!	!	!	!	!	!	!	!	!	!
1D	-ſis	.	2A/	-ſan-	.	2d\	.	.	2f\	.
.	.	.	2F/	.	.	2A/	.	.	2a\	.
2r	.	.	2G/	-na	.	2B-/	.	.	2g\	.
*	*ij	*	*	*	*	*	*	*	*	*
!	!	!	!LO:TX:t=P:problem=kreska pseudotaktowa	!	!	!LO:TX:t=P::problem=kreska pseudotaktowa&colon;między nutą a kropką	!	!	!LO:TX:t=P:problem=kreska pseudotaktowa	!
2D/	o-	.	2A/	.	.	2.d\	.	.	2f\	.
=83-	=83-	=83-	=83	=83	=83	=83	=83	=83	=83	=83
2G\	-ſan-	.	2B-/	in	.	.	.	.	2g\	-ſis
*	*	*	*	*	*	*	*	*	*	*Xij
.	.	.	.	.	.	4e\	.	.	.	.
!LO:TX:t=P:problem=kreska pseudotaktowa	!	!	!	!	!	!	!	!	!	!
2F/	.	.	2c/	ex-	.	1f	.	.	1a	in
2D/	-na	.	2d\	-cel-	.	.	.	.	.	.
!	!	!	!LO:TX:t=P:problem=kreska pseudotaktowa	!	!	!	!	!	!LO:TX:t=P:problem=kreska pseudotaktowa	!
2E/	.	.	2G/	-ſis	.	4e\	.	.	2g\	ex-
*	*	*	*	*Xij	*	*	*	*	*	*
!	!	!	!	!	!	!LO:TX:t=P:problem=kreska pseudotaktowa	!	!	!	!
.	.	.	.	.	.	4d\	.	.	.	.
=84-	=84-	=84-	=84	=84	=84	=84	=84	=84	=84-	=84-
2F/	in	.	2r	.	.	2c/	.	.	2a\	-cel-
!LO:TX:t=P:problem=kreska pseudotaktowa	!	!	!	!	!	!	!	!	!LO:TX:t=P:problem=kreska pseudotaktowa	!
2D/	ex-	.	2A/	in	.	2d\	.	.	2f\	.
2G\	-cel-	.	2B-/	.	.	2e\	.	.	2g\	.
!LO:TX:t=P:problem=kreska pseudotaktowa	!	!	!LO:TX:t=P:problem=kreska pseudotaktowa	!	!	!	!	!	!	!
2F\	.	.	2c\	ex-	.	1f\	-ſis	.	1a\	.
*	*	*	*	*	*	*	*Xij	*	*	*
=85	=85	=85	=85	=85	=85	=85-	=85-	=85-	=85-	=85-
2D/	.	.	2d\	-cel-	.	.	.	.	.	.
*custos:E-	*	*	*	*	*	*	*	*	*	*
*xywh-#600:1003,2041,4312,1050	*	*	*	*	*	*	*	*	*	*
!LO:LB:g=original	!	!	!	!	!	!	!	!	!	!
!LO:TX:t=P:problem=kreska pseudotaktowa	!	!	!	!	!	!	!	!	!	!
2E-X/	.	.	2B-/	.	.	1e-X	in	.	1g	.
2C/	-ſis	.	2c\	.	.	.	.	.	.	.
*	*Xij	*	*	*	*	*	*	*	*	*
!	!	!	!LO:TX:t=P:problem=kreska pseudotaktowa	!	!	!LO:TX:t=P:problem=kreska pseudotaktowa	!	!	!	!
2D/	.	.	2A/	.	.	2d\	.	.	2f\	.
=86-	=86-	=86-	=86	=86	=86	=86	=86	=86	=86-	=86-
2Eny/	in	.	1G	.	.	2B-/	ex-	.	00g;>	-ſis
*	*	*	*	*	*	*clefC2	*	*	*	*
*	*	*	*	*	*	*custos:c	*	*	*	*
*	*	*	*	*	*	*xywh-#233:1157,2031,4434,986	*	*	*	*
!	!	!	!	!	!	!LO:LB:g=original	!	!	!	!
!LO:TX:t=P:problem=kreska pseudotaktowa	!	!	!	!	!	!	!	!	!	!
2.C/	ex-	.	.	.	.	2c/	.	.	.	.
.	.	.	1c	.	.	1e	-cel-	.	.	.
4D/	-cel-	.	.	.	.	.	.	.	.	.
4E/	.	.	.	.	.	.	.	.	.	.
4F\	-ſis	.	.	.	.	.	.	.	.	.
=87-	=87-	=87-	=87-	=87-	=87-	=87-	=87-	=87-	=87-	=87-
!	!	!	!LO:N:acc=#	!	!	!	!	!	!	!
!	!	!	!	!	!	!	!	!	!LO:TX:b:t=Benedictus\ntacet&colon;	!
0Gl;<	.	.	0Bnl	-ſis,	.	0d\;>l	-ſis	.	.	.
*	*	*	*clefC2	*	*	*	*	*	*	*
*	*	*	*custos:d	*	*	*	*	*	*	*
!	!	!	!LO:LB:g=original	!	!	!	!	!	!	!
=88||	=88||	=88||	=88||	=88||	=88||	=88||	=88||	=88||	=88||	=88||
*	*	*	*xywh-#429:1114,2050,4350,995	*	*	*	*	*	*	*
*	*	*	*	*	*	*	*	*	*xywh-#42:1097,1347,1101,671	*
*	*	*	*	*	*	*M2/1	*	*	*	*
*	*	*	*	*	*	*met(C|)	*	*	*	*
0r	.	.	00r	.	.	1.d	Be-	A-	0ryy	.
!	!	!	!	!	!	!LO:TX:t=P:problem=kreska pseudotaktowa	!	!	!	!
.	.	.	.	.	.	2d/	-ne-	-gnus	.	.
=89-	=89-	=89-	=89-	=89-	=89-	=89-	=89-	=89-	=89-	=89-
!LO:TX:t=P:problem=kreska pseudotaktowa	!	!	!	!	!	!	!	!	!	!
1r	.	.	.	.	.	2.f\	-di-	.	0ryy	.
!	!	!	!	!	!	!LO:TX:t=P:problem=kreska pseudotaktowa	!	!	!	!
.	.	.	.	.	.	4e/	.	de-	.	.
1.G	Be-	A-	.	.	.	4d/	.	.	.	.
.	.	.	.	.	.	4c/	.	.	.	.
.	.	.	.	.	.	2.d/	.	.	.	.
=90-	=90-	=90-	=90-	=90-	=90-	=90-	=90-	=90-	=90-	=90-
.	.	.	00d\	Be-	A-	.	.	.	0ryy	.
.	.	.	.	.	.	4c/	.	.	.	.
!LO:TX:t=P:problem=kreska pseudotaktowa	!	!	!	!	!	!	!	!	!	!
2G\	-ne-	-gnus	.	.	.	4B-/	.	.	.	.
!	!	!	!	!	!	!LO:TX:t=P:problem=kreska pseudotaktowa	!	!	!	!
.	.	.	.	.	.	4A/	.	.	.	.
2.B-\	-di-	.	.	.	.	2.G/	.	.	.	.
!	!	!	!	!	!	!LO:TX:t=P:problem=kreska pseudotaktowa	!	!	!	!
4A\	.	de-	.	.	.	4A/	.	.	.	.
=91-	=91-	=91-	=91-	=91-	=91-	=91	=91	=91	=91-	=91-
4G\	.	.	.	.	.	4B-/	.	.	0ryy	.
4F/	.	.	.	.	.	4A/	.	.	.	.
*clefC4	*	*	*	*	*	*	*	*	*	*
*custos:G	*	*	*	*	*	*custos:B-	*	*	*	*
*xywh-#600:1065,2805,4290,1398	*	*	*	*	*	*xywh-#233:1180,2721,4350,1182	*	*	*	*
!LO:LB:g=original	!	!	!	!	!	!LO:LB:g=original	!	!	!	!
1G	.	.	.	.	.	1B-	.	.	.	.
4F/	.	.	.	.	.	4A/	.	.	.	.
!	!	!	!	!	!	!LO:TX:t=P:problem=kreska pseudotaktowa	!	!	!	!
4E/	.	.	.	.	.	4G/	.	.	.	.
=92-	=92-	=92-	=92-	=92-	=92-	=92	=92	=92	=92-	=92-
!LO:TX:t=P:problem=kreska pseudotaktowa	!	!	!LO:TX:t=P:problem=kreska pseudotaktowa	!	!	!	!	!	!	!
2F/	.	.	1d	-ne-	-gnus	2A/	.	.	0ryy	.
2G/	.	.	.	.	.	2B-/	.	.	.	.
!LO:TX:t=P:problem=kreska pseudotaktowa	!	!	!	!	!	!LO:TX:t=P:problem=kreska pseudotaktowa	!	!	!	!
0D	-ctus	-i	2.f\	-di-	.	1A	-ctus	-i	.	.
.	.	.	4e/	.	De-	.	.	.	.	.
=93-	=93-	=93-	=93-	=93-	=93-	=93	=93	=93	=93-	=93-
.	.	.	4d/	.	.	1a	.	.	0ryy	.
.	.	.	4c/	.	.	.	.	.	.	.
!	!	!	!LO:TX:t=P:problem=kreska pseudotaktowa	!	!	!	!	!	!	!
.	.	.	2.d/	.	.	.	.	.	.	.
2r	.	.	.	.	.	1.f	qui	qui	.	.
.	.	.	4c/	.	.	.	.	.	.	.
2.B-\	qui	qui	2.d/	.	.	.	.	.	.	.
=94-	=94-	=94-	=94-	=94-	=94-	=94-	=94-	=94-	=94-	=94-
.	.	.	.	.	.	.	.	.	0ryy	.
4A\	.	.	4c/	.	.	.	.	.	.	.
!LO:TX:t=P:problem=kreska pseudotaktowa	!	!	!LO:TX:t=P:problem=kreska pseudotaktowa	!	!	!LO:TX:t=P:problem=kreska pseudotaktowa	!	!	!	!
2G/	.	.	2B-/	.	.	2g\	ue-	tol-	.	.
2F/	.	.	2A/	.	.	2a\	-nit	-lis	.	.
2G/	ue-	tol-	2B-/	.	.	2d/	.	.	.	.
=95-	=95-	=95-	=95-	=95-	=95-	=95-	=95-	=95-	=95-	=95-
*	*	*	*	*	*	*	*ij	*	*	*
2D/	.	.	2A/	.	.	2a\	qui	pec-	0ryy	.
!LO:TX:t=P:problem=kreska pseudotaktowa	!	!	!LO:TX:t=P:problem=kreska pseudotaktowa	!	!	!	!	!	!	!
2B-\	-nit	-lis	2d/	.	.	1f	.	-ca-	.	.
2A\	in	pec-	2c/	.	.	.	.	.	.	.
!	!	!	!	!	!	!LO:TX:t=P:problem=kreska pseudotaktowa	!	!	!	!
2.B-\	no-	-ca-	2.d/	.	.	2f\	ue-	-ta	.	.
=96-	=96-	=96-	=96-	=96-	=96-	=96	=96	=96	=96-	=96-
.	.	.	.	.	.	1.b-	.	.	0ryy	.
4A/	-mi-	-ta	4c/	.	.	.	.	.	.	.
4G/	.	.	1f	.	.	.	.	.	.	.
!LO:TX:t=P:problem=kreska pseudotaktowa	!	!	!	!	!	!	!	!	!	!
4F/	.	.	.	.	.	.	.	.	.	.
1G	.	.	.	.	.	.	.	.	.	.
!	!	!	!LO:TX:t=P:problem=kreska pseudotaktowa	!	!	!	!	!	!	!
.	.	.	2e/	.	.	4a\	.	mun-	.	.
.	.	.	.	.	.	4g\	.	.	.	.
*	*	*	*custos:f	*	*	*	*	*	*	*
!	!	!	!LO:LB:g=original	!	!	!	!	!	!	!
=97-	=97-	=97-	=97	=97	=97	=97-	=97-	=97-	=97-	=97-
*	*	*	*xywh-#429:1114,2772,4254,1091	*	*	*	*	*	*	*
!	!	!	!	!	!	!LO:TX:t=P:problem=kreska pseudotaktowa	!	!	!	!
4F/	-ne	mu(n)-	1f	-ctus,	.	00a	-nit	-di,	0ryy	.
*	*	*	*	*	*	*	*Xij	*	*	*
4G/	.	.	.	.	.	.	.	.	.	.
4A/	.	.	.	.	.	.	.	.	.	.
!LO:TX:t=P:problem=kreska pseudotaktowa	!	!	!	!	!	!	!	!	!	!
4B-/	.	.	.	.	.	.	.	.	.	.
*custos:c	*	*	*	*	*	*	*	*	*	*
*xywh-#600:5708,536,4329,1050	*	*	*	*	*	*	*	*	*	*
!LO:PB:g=original	!	!	!	!	!	!	!	!	!	!
2c\	.	.	2e\	.	-i	.	.	.	.	.
2.d\	do-	.	2.f\	qui	qui	.	.	.	.	.
=98-	=98-	=98-	=98-	=98-	=98-	=98-	=98-	=98-	=98-	=98-
.	.	.	.	.	.	.	.	.	0ryy	.
4c\	.	.	4e/	.	.	.	.	.	.	.
!LO:TX:t=P:problem=kreska pseudotaktowa	!	!	!LO:TX:t=P:problem=kreska pseudotaktowa	!	!	!	!	!	!	!
2d\	.	.	2f\	ve-	.	.	.	.	.	.
2A/	.	.	2e/	.	.	.	.	.	.	.
2.d\	.	.	2.f\	.	tol-	.	.	.	.	.
=99-	=99-	=99-	=99-	=99-	=99-	=99-	=99-	=99-	=99-	=99-
.	.	.	.	.	.	1r	.	.	0ryy	.
4c\	.	.	4e/	.	.	.	.	.	.	.
!LO:TX:t=P:problem=kreska pseudotaktowa	!	!	!	!	!	!	!	!	!	!
2A/	.	.	2.a\	.	.	.	.	.	.	.
*	*	*	*	*	*	*	*	*ij	*	*
!	!	!	!	!	!	!LO:TX:t=P:problem=kreska pseudotaktowa	!	!	!	!
1B-	-mi-	.	.	.	.	1d	in	qui	.	.
.	.	.	8g\L	.	.	.	.	.	.	.
.	.	.	8f\J	.	.	.	.	.	.	.
!	!	!	!LO:TX:t=P:problem=kreska pseudotaktowa	!	!	!	!	!	!	!
.	.	.	2g\	.	.	.	.	.	.	.
*	*	*	*	*	*	*custos:e	*	*	*	*
!	!	!	!	!	!	!LO:LB:g=original	!	!	!	!
=100-	=100-	=100-	=100	=100	=100	=100-	=100-	=100-	=100-	=100-
*	*	*	*	*	*	*xywh-#233:5788,630,4440,1025	*	*	*	*
!LO:TX:t=P:problem=kreska pseudotaktowa	!	!	!	!	!	!	!	!	!	!
1A	-ni,	-di,	1a	-nit,	-lis	2e/	no-	tol-	0ryy	.
!	!	!	!	!	!	!LO:TX:t=P:problem=kreska pseudotaktowa	!	!	!	!
.	.	.	.	.	.	2c/	.	-lis	.	.
1r	.	.	2b-\	.	.	2d/	-mi-	pec-	.	.
.	.	.	1a\	.	.	1f\	-ne	-ca-	.	.
=101-	=101-	=101-	=101-	=101-	=101-	=101-	=101-	=101-	=101-	=101-
!LO:TX:t=P:problem=kreska pseudotaktowa	!	!	!	!	!	!	!	!	!	!
0r	.	.	.	.	.	.	.	.	0ryy	.
.	.	.	4g\	.	.	4e/	do-	.	.	.
!	!	!	!LO:TX:t=P:problem=kreska pseudotaktowa	!	!	!LO:TX:t=P:problem=kreska pseudotaktowa	!	!	!	!
.	.	.	4f\	.	.	4d/	.	.	.	.
.	.	.	2g\	.	.	2e/	.	-ta	.	.
.	.	.	2f\	.	.	1d/	.	m(un)-	.	.
=102-	=102-	=102-	=102-	=102-	=102-	=102-	=102-	=102-	=102-	=102-
!	!	!	!LO:TX:t=P:problem=kreska pseudotaktowa	!	!	!	!	!	!	!
1A	in	.	1e	.	.	.	.	.	0ryy	.
.	.	.	.	.	.	2c/	-mi-	.	.	.
!	!	!	!	!	!	!LO:TX:t=P:problem=kreska pseudotaktowa	!	!	!	!
2B-/	no-	mi-	2r	.	.	0d	-ni,	-di	.	.
*	*	*	*	*	*	*	*	*Xij	*	*
*	*	*	*custos:d	*	*	*	*	*	*	*
*	*	*	*xywh-#429:5692,565,4589,1086	*	*	*	*	*	*	*
!	!	!	!LO:PB:g=original	!	!	!	!	!	!	!
!LO:TX:t=P:problem=kreska pseudotaktowa	!	!	!	!	!	!	!	!	!	!
2G/	.	-ſe-	2.d/	in	pec-	.	.	.	.	.
=103	=103	=103	=103-	=103-	=103-	=103-	=103-	=103-	=103-	=103-
2B-/	-mi-	-re-	.	.	.	.	.	.	0ryy	.
.	.	.	4e/	.	.	.	.	.	.	.
4A/	-ne	-re	4f\	.	.	.	.	.	.	.
!LO:TX:t=P:problem=kreska pseudotaktowa	!	!	!LO:TX:t=P:problem=kreska pseudotaktowa	!	!	!	!	!	!	!
4G/	.	.	4g\	.	.	.	.	.	.	.
2F/	.	.	2a\	.	.	0r	.	.	.	.
2.G/	do-	no-	2.b-\	.	.	.	.	.	.	.
=104-	=104-	=104-	=104-	=104-	=104-	=104-	=104-	=104-	=104-	=104-
.	.	.	.	.	.	.	.	.	0ryy	.
4A/	.	.	4a\	no-	-ca-	.	.	.	.	.
4B-/	.	.	1g	-mi-	-ta	.	.	.	.	.
!LO:TX:t=P:problem=kreska pseudotaktowa	!	!	!	!	!	!	!	!	!	!
4G/	.	.	.	.	.	.	.	.	.	.
*custos:A	*	*	*	*	*	*	*	*	*	*
*xywh-#600:5675,1311,4346,993	*	*	*	*	*	*	*	*	*	*
!LO:LB:g=original	!	!	!	!	!	!	!	!	!	!
2A/	.	.	.	.	.	1a	in	mi-	.	.
!	!	!	!LO:TX:t=P:problem=kreska pseudotaktowa	!	!	!	!	!	!	!
2A/	-mi-	.	2f/	-ne,	m(un)-	.	.	.	.	.
=105-	=105-	=105-	=105	=105	=105	=105-	=105-	=105-	=105-	=105-
!LO:TX:t=P:problem=kreska pseudotaktowa	!	!	!	!	!	!	!	!	!	!
0G	-ni	-bis,	1g	.	-di	2b-\	.	-ſe-	0ryy	.
!	!	!	!	!	!	!LO:TX:t=P:problem=kreska pseudotaktowa	!	!	!	!
.	.	.	.	.	.	2g\	no-	-re-	.	.
.	.	.	2r	.	.	2.b-\	-mi-	-re	.	.
*	*	*	*lig	*	*ij	*	*	*	*	*
.	.	.	1d/	do-	pec-	.	.	.	.	.
.	.	.	.	.	.	8a\L	-ne	.	.	.
.	.	.	.	.	.	8g\J	.	.	.	.
=106	=106	=106	=106-	=106-	=106-	=106-	=106-	=106-	=106-	=106-
!	!	!	!	!	!	!LO:TX:t=P:problem=kreska pseudotaktowa	!	!	!	!
0r	.	.	.	.	.	2f\	.	.	0ryy	.
*	*	*	*col	*	*	*	*	*	*	*
*	*	*	*	*	*	*custos:g	*	*	*	*
*	*	*	*	*	*	*xywh-#233:5838,1302,4249,1076	*	*	*	*
!	!	!	!	!	!	!LO:LB:g=original	!	!	!	!
.	.	.	2.e/	.	-ca-	2.g\	do-	no-	.	.
*	*	*	*Xlig	*	*	*	*	*	*	*
.	.	.	4d/	.	-ta	4a\	.	.	.	.
*	*	*	*Xcol	*	*	*	*	*	*	*
.	.	.	1g\	.	m(un)-	4b-\	.	.	.	.
!	!	!	!	!	!	!LO:TX:t=P:problem=kreska pseudotaktowa	!	!	!	!
.	.	.	.	.	.	4g\	.	.	.	.
=107-	=107-	=107-	=107-	=107-	=107-	=107	=107	=107	=107-	=107-
1D	in	mi-	.	.	.	2a\	.	.	0ryy	.
.	.	.	2f\	-mi-	.	2a\	-mi-	.	.	.
!	!	!	!LO:TX:t=P:problem=kreska pseudotaktowa	!	!	!LO:TX:t=P:problem=kreska pseudotaktowa	!	!	!	!
2E/	no-	-ſe-	1g	-ni,	-di	1g	-ni,	.	.	.
*	*	*	*	*	*Xij	*	*	*	*	*
!LO:TX:t=P:problem=kreska pseudotaktowa	!	!	!	!	!	!	!	!	!	!
2C/	-mi-	-re-	.	.	.	.	.	.	.	.
=108	=108	=108	=108-	=108-	=108-	=108-	=108-	=108-	=108-	=108-
2.G/	-ne	-re	2r	.	.	1g	in	-bis	0ryy	.
.	.	.	2d/	in	mi-	.	.	.	.	.
8F/L	.	.	.	.	.	.	.	.	.	.
8E/J	.	.	.	.	.	.	.	.	.	.
2.D/	do-	no-	2.f/	.	.	1.a	no-	mi-	.	.
!LO:TX:t=P:problem=kreska pseudotaktowa	!	!	!	!	!	!	!	!	!	!
4E/	.	.	8e/L	no-	-ſe-	.	.	.	.	.
.	.	.	8d/J	.	-re-	.	.	.	.	.
=109	=109	=109	=109-	=109-	=109-	=109-	=109-	=109-	=109-	=109-
!	!	!	!LO:TX:t=P:problem=kreska pseudotaktowa	!	!	!	!	!	!	!
2F/	.	.	2c/	.	.	.	.	.	0ryy	.
*	*	*	*custos:d	*	*	*	*	*	*	*
*	*	*	*xywh-#429:5789,1276,4316,1057	*	*	*	*	*	*	*
!	!	!	!LO:LB:g=original	!	!	!	!	!	!	!
!	!	!	!LO:TX:t=P:problem=kreska pseudotaktowa	!	!	!LO:TX:t=P:problem=kreska pseudotaktowa	!	!	!	!
2D/	.	.	2d/	-mi-	-re	2f\	-mi-	-ſe-	.	.
2E/	.	.	2G/	-ne	no-	2g\	-ne	-re-	.	.
!LO:TX:t=P:problem=kreska pseudotaktowa	!	!	!	!	!	!LO:TX:t=P:problem=kreska pseudotaktowa	!	!	!	!
2F/	.	.	2d/	.	.	2a\	.	-re	.	.
=110	=110	=110	=110-	=110-	=110-	=110	=110	=110	=110-	=110-
2G/	.	.	4c/	do-	.	2d/	do-	.	0ryy	.
.	.	.	4B-/	.	.	.	.	.	.	.
2E/	.	.	4A/	.	.	1g	.	.	.	.
!	!	!	!LO:TX:t=P:problem=kreska pseudotaktowa	!	!	!	!	!	!	!
.	.	.	4G/	.	.	.	.	.	.	.
1D	-mi-	.	2A/	.	.	.	.	.	.	.
.	.	.	2A/	-mi-	.	2f\	-mi-	no-	.	.
=111-	=111-	=111-	=111-	=111-	=111-	=111-	=111-	=111-	=111-	=111-
*custos:G	*	*	*custos:G	*	*	*custos:G	*	*	*	*
0G\l;>	-ni	-bis	0Gl	-ni;	-bis,	0g\l	-ni;	-bis,	0ryy	.
==	==	==	==	==	==	==	==	==	==	==
*-	*-	*-	*-	*-	*-	*-	*-	*-	*-	*-
!!!system-decoration: [(g1)]
!!!RDF**kern: > = above
!!!RDF**kern: < = below
!!!RDF**kern: l = terminal long
!!!ENC: Mateusz Solarz
!!!END: 2022-02-07
!!!EED: Jędrzej Mróz
!!!EEV: 2022-02-17
!!!ENC-iiif: Antoni Szymański
!!!END-iiif: 2022-09-03
!!!YEC: Copyright 2022 Narodowy Instytut Fryderyka Chopina (https://polishscores.org)
!!!YEM: License CC-BY-4.0 (https://creativecommons.org/licenses/by/4.0)
